static/assets/images/networks/hyperevm.svg

<svg width="256" height="256" viewBox="0 0 256 256" fill="none" xmlns="http://www.w3.org/2000/svg">
<path d="M128 256C198.692 256 256 198.692 256 128C256 57.3075 198.692 0 128 0C57.3075 0 0 57.3075 0 128C0 198.692 57.3075 256 128 256Z" fill="black"/>
<path d="M226.993 127.54C227.173 143.802 223.78 159.341 217.115 174.188C207.596 195.329 184.777 212.616 163.938 194.215C146.943 179.217 143.791 148.771 118.329 144.314C84.6393 140.218 83.8286 179.398 61.8195 183.825C37.2881 188.824 29.1511 147.446 29.5114 128.654C29.8717 109.862 34.856 83.4505 56.1746 83.4505C80.7059 83.4505 82.3573 120.703 113.495 118.685C144.331 116.577 144.872 77.8189 165.019 61.2254C182.404 46.8905 202.852 57.4008 213.091 74.6568C222.579 90.618 226.753 109.35 226.963 127.54H226.993Z" fill="#97FCE4"/>
</svg>

<svg xmlns="http://www.w3.org/2000/svg" fill="none" viewBox="0 0 256 256"><path fill="#000" d="M128 256c70.692 0 128-57.308 128-128S198.692 0 128 0 0 57.308 0 128s57.308 128 128 128"/><path fill="#97FCE4" d="M226.993 127.54c.18 16.262-3.213 31.801-9.878 46.648-9.519 21.141-32.338 38.428-53.177 20.027-16.995-14.998-20.147-45.444-45.609-49.901-33.69-4.096-34.5 35.084-56.51 39.511-24.53 4.999-32.668-36.379-32.308-55.171s5.345-45.203 26.664-45.203c24.53 0 26.182 37.252 57.32 35.234 30.836-2.108 31.377-40.866 51.524-57.46 17.385-14.334 37.833-3.824 48.072 13.432 9.488 15.961 13.662 34.693 13.872 52.883z"/></svg>
